Origami/22x22/apps/asc-de.svg

<svg width="22" height="22" version="1.1" viewBox="0 0 22 22" xmlns="http://www.w3.org/2000/svg">
 <path d="m10.500441 11.500001c-0.63013-1.01e-4 -1.260292 0.123073-1.7266009 0.368498l-7.0748092 3.722951c-0.9326183 0.490848-0.931752 1.326614 8.65e-4 1.817463l7.0739407 3.722951c0.9326174 0.490848 2.5205854 0.490848 3.4532014 0l7.073942-3.722951c0.932616-0.490847 0.931738-1.326616-9e-4 -1.817463l-7.073039-3.722951c-0.466309-0.245425-1.09647-0.368398-1.7266-0.368498z" style="opacity:.2"/>
 <path d="m10.500441 11.000001c-0.63013-1.01e-4 -1.260292 0.123073-1.7266009 0.368498l-7.0748092 3.722951c-0.9326183 0.490848-0.931752 1.326614 8.65e-4 1.817463l7.0739407 3.722951c0.9326174 0.490848 2.5205854 0.490848 3.4532014 0l7.073942-3.722951c0.932616-0.490847 0.931738-1.326616-9e-4 -1.817463l-7.073039-3.722951c-0.466309-0.245425-1.09647-0.368398-1.7266-0.368498z" style="fill:#ea6e41"/>
 <path d="m10.5 11.000001c-0.63013-1.01e-4 -1.260254 0.122739-1.7265624 0.368164l-7.0742185 3.723632c-0.5838192 0.307271-0.8016732 0.749828-0.6542968 1.158203 0.0879275-0.243699 0.3058641-0.474818 0.6542968-0.658203l7.0742185-3.723632c0.4663084-0.245425 1.0964324-0.368265 1.7265624-0.368164 0.630131 1e-4 1.260254 0.122739 1.726562 0.368164l7.073242 3.723632c0.34844 0.183384 0.567038 0.414504 0.655274 0.658203 0.146863-0.408375-0.07144-0.850933-0.655274-1.158203l-7.073242-3.723632c-0.466308-0.245425-1.096431-0.368064-1.726562-0.368164z" style="fill:#ffffff;opacity:.2"/>
 <path d="m10.500441 6.5000008c-0.63013-1.005e-4 -1.260292 0.1230735-1.7266009 0.368498l-7.0748092 3.7229512c-0.9326183 0.490849-0.931752 1.326615 8.65e-4 1.817464l7.0739407 3.72295c0.9326174 0.490848 2.5205854 0.490848 3.4532014 0l7.073942-3.72295c0.932616-0.490848 0.931738-1.326617-9e-4 -1.817464l-7.073039-3.7229512c-0.466309-0.2454245-1.09647-0.3683975-1.7266-0.368498z" style="opacity:.2"/>
 <path d="m10.500441 6.0000008c-0.63013-1.005e-4 -1.260292 0.1230735-1.7266009 0.368498l-7.0748092 3.7229512c-0.9326183 0.490849-0.931752 1.326615 8.65e-4 1.817464l7.0739407 3.72295c0.9326174 0.490848 2.5205854 0.490848 3.4532014 0l7.073942-3.72295c0.932616-0.490848 0.931738-1.326617-9e-4 -1.817464l-7.073039-3.7229512c-0.466309-0.2454245-1.09647-0.3683975-1.7266-0.368498z" style="fill:#aed351"/>
 <path d="m10.5 6.0000008c-0.63013-1.005e-4 -1.260254 0.1227395-1.7265624 0.368164l-7.0742185 3.7236332c-0.5838192 0.307271-0.8016732 0.749828-0.6542968 1.158203 0.087927-0.243699 0.3058641-0.474819 0.6542968-0.658203l7.0742185-3.7236332c0.4663084-0.2454245 1.0964324-0.3682645 1.7265624-0.368164 0.630131 1.005e-4 1.260254 0.1227395 1.726562 0.368164l7.073242 3.7236332c0.34844 0.183384 0.567038 0.414503 0.655274 0.658203 0.146863-0.408375-0.07144-0.850933-0.655274-1.158203l-7.073242-3.7236332c-0.466308-0.2454245-1.096431-0.3680635-1.726562-0.368164z" style="fill:#ffffff;opacity:.2"/>
 <path d="m10.500441 1.5000014c-0.63013-1.005e-4 -1.260292 0.1230735-1.7266009 0.368498l-7.0748092 3.7229509c-0.9326183 0.4908485-0.931752 1.3266145 8.65e-4 1.8174635l7.0739407 3.7229512c0.9326174 0.490848 2.5205854 0.490847 3.4532014 0l7.073942-3.7229512c0.932616-0.4908475 0.931738-1.3266165-9e-4 -1.8174635l-7.073039-3.7229509c-0.466309-0.2454245-1.09647-0.3683975-1.7266-0.368498z" style="opacity:.2"/>
 <path d="m10.500441 1.0000012c-0.63013-1.005e-4 -1.260292 0.1230735-1.7266009 0.368498l-7.0748092 3.7229511c-0.9326183 0.4908485-0.931752 1.3266145 8.65e-4 1.8174635l7.0739407 3.7229512c0.9326174 0.490848 2.5205854 0.490847 3.4532014 0l7.073942-3.7229512c0.932616-0.4908475 0.931738-1.3266165-9e-4 -1.8174635l-7.073039-3.7229511c-0.466309-0.2454245-1.09647-0.3683975-1.7266-0.368498z" style="fill:#3b9dda"/>
 <path d="m10.5 1.000001c-0.63013-1.005e-4 -1.260254 0.1227396-1.7265624 0.368164l-7.0742185 3.7236328c-0.5838192 0.307271-0.8016732 0.749828-0.6542968 1.158203 0.0879275-0.243699 0.3058641-0.4748185 0.6542968-0.658203l7.0742185-3.7236328c0.4663084-0.2454245 1.0964324-0.3682645 1.7265624-0.368164 0.630131 1.005e-4 1.260254 0.1227395 1.726562 0.368164l7.073242 3.7236328c0.34844 0.183384 0.567038 0.4145035 0.655274 0.658203 0.146863-0.408375-0.07144-0.850933-0.655274-1.158203l-7.073242-3.7236328c-0.466308-0.2454244-1.096431-0.3680635-1.726562-0.368164z" style="fill:#ffffff;opacity:.2"/>
</svg>

<svg xmlns="http://www.w3.org/2000/svg" width="22" height="22" version="1.1" viewBox="0 0 22 22">
 <path style="opacity:0.2" d="M 10.500441,11.500001 C 9.870311,11.4999 9.240149,11.623074 8.7738401,11.868499 L 1.6990309,15.59145 c -0.9326183,0.490848 -0.931752,1.326614 8.65e-4,1.817463 l 7.0739407,3.722951 c 0.9326174,0.490848 2.5205854,0.490848 3.4532014,0 l 7.073942,-3.722951 c 0.932616,-0.490847 0.931738,-1.326616 -9e-4,-1.817463 l -7.073039,-3.722951 c -0.466309,-0.245425 -1.09647,-0.368398 -1.7266,-0.368498 z"/>
 <path style="fill:#ea6e41" d="M 10.500441,11.000001 C 9.870311,10.9999 9.240149,11.123074 8.7738401,11.368499 L 1.6990309,15.09145 c -0.9326183,0.490848 -0.931752,1.326614 8.65e-4,1.817463 l 7.0739407,3.722951 c 0.9326174,0.490848 2.5205854,0.490848 3.4532014,0 l 7.073942,-3.722951 c 0.932616,-0.490847 0.931738,-1.326616 -9e-4,-1.817463 l -7.073039,-3.722951 c -0.466309,-0.245425 -1.09647,-0.368398 -1.7266,-0.368498 z"/>
 <path style="opacity:0.2;fill:#ffffff" d="M 10.5,11.000001 C 9.86987,10.9999 9.239746,11.12274 8.7734376,11.368165 L 1.6992191,15.091797 C 1.1153999,15.399068 0.8975459,15.841625 1.0449223,16.25 1.1328498,16.006301 1.3507864,15.775182 1.6992191,15.591797 L 8.7734376,11.868165 C 9.239746,11.62274 9.86987,11.4999 10.5,11.500001 c 0.630131,1e-4 1.260254,0.122739 1.726562,0.368164 l 7.073242,3.723632 c 0.34844,0.183384 0.567038,0.414504 0.655274,0.658203 0.146863,-0.408375 -0.07144,-0.850933 -0.655274,-1.158203 L 12.226562,11.368165 C 11.760254,11.12274 11.130131,11.000101 10.5,11.000001 Z"/>
 <path style="opacity:0.2" d="M 10.500441,6.5000008 C 9.870311,6.4999003 9.240149,6.6230743 8.7738401,6.8684988 L 1.6990309,10.59145 c -0.9326183,0.490849 -0.931752,1.326615 8.65e-4,1.817464 l 7.0739407,3.72295 c 0.9326174,0.490848 2.5205854,0.490848 3.4532014,0 l 7.073942,-3.72295 c 0.932616,-0.490848 0.931738,-1.326617 -9e-4,-1.817464 L 12.227041,6.8684988 c -0.466309,-0.2454245 -1.09647,-0.3683975 -1.7266,-0.368498 z"/>
 <path style="fill:#aed351" d="M 10.500441,6.0000008 C 9.870311,5.9999003 9.240149,6.1230743 8.7738401,6.3684988 L 1.6990309,10.09145 c -0.9326183,0.490849 -0.931752,1.326615 8.65e-4,1.817464 l 7.0739407,3.72295 c 0.9326174,0.490848 2.5205854,0.490848 3.4532014,0 l 7.073942,-3.72295 c 0.932616,-0.490848 0.931738,-1.326617 -9e-4,-1.817464 L 12.227041,6.3684988 c -0.466309,-0.2454245 -1.09647,-0.3683975 -1.7266,-0.368498 z"/>
 <path style="opacity:0.2;fill:#ffffff" d="M 10.5,6.0000008 C 9.86987,5.9999003 9.239746,6.1227403 8.7734376,6.3681648 L 1.6992191,10.091798 c -0.5838192,0.307271 -0.8016732,0.749828 -0.6542968,1.158203 0.087927,-0.243699 0.3058641,-0.474819 0.6542968,-0.658203 L 8.7734376,6.8681648 C 9.239746,6.6227403 9.86987,6.4999003 10.5,6.5000008 c 0.630131,1.005e-4 1.260254,0.1227395 1.726562,0.368164 l 7.073242,3.7236332 c 0.34844,0.183384 0.567038,0.414503 0.655274,0.658203 0.146863,-0.408375 -0.07144,-0.850933 -0.655274,-1.158203 L 12.226562,6.3681648 C 11.760254,6.1227403 11.130131,6.0001013 10.5,6.0000008 Z"/>
 <path style="opacity:0.2" d="M 10.500441,1.5000014 C 9.870311,1.4999009 9.240149,1.6230749 8.7738401,1.8684994 L 1.6990309,5.5914503 c -0.9326183,0.4908485 -0.931752,1.3266145 8.65e-4,1.8174635 l 7.0739407,3.7229512 c 0.9326174,0.490848 2.5205854,0.490847 3.4532014,0 L 19.30098,7.4089138 c 0.932616,-0.4908475 0.931738,-1.3266165 -9e-4,-1.8174635 L 12.227041,1.8684994 c -0.466309,-0.2454245 -1.09647,-0.3683975 -1.7266,-0.368498 z"/>
 <path style="fill:#3b9dda" d="M 10.500441,1.0000012 C 9.870311,0.9999007 9.240149,1.1230747 8.7738401,1.3684992 L 1.6990309,5.0914503 c -0.9326183,0.4908485 -0.931752,1.3266145 8.65e-4,1.8174635 l 7.0739407,3.7229512 c 0.9326174,0.490848 2.5205854,0.490847 3.4532014,0 L 19.30098,6.9089138 c 0.932616,-0.4908475 0.931738,-1.3266165 -9e-4,-1.8174635 L 12.227041,1.3684992 c -0.466309,-0.2454245 -1.09647,-0.3683975 -1.7266,-0.368498 z"/>
 <path style="opacity:0.2;fill:#ffffff" d="M 10.5,1.000001 C 9.86987,0.9999005 9.239746,1.1227406 8.7734376,1.368165 L 1.6992191,5.0917978 C 1.1153999,5.3990688 0.8975459,5.8416258 1.0449223,6.2500008 1.1328498,6.0063018 1.3507864,5.7751823 1.6992191,5.5917978 L 8.7734376,1.868165 C 9.239746,1.6227405 9.86987,1.4999005 10.5,1.500001 c 0.630131,1.005e-4 1.260254,0.1227395 1.726562,0.368164 l 7.073242,3.7236328 c 0.34844,0.183384 0.567038,0.4145035 0.655274,0.658203 0.146863,-0.408375 -0.07144,-0.850933 -0.655274,-1.158203 L 12.226562,1.368165 C 11.760254,1.1227406 11.130131,1.0001015 10.5,1.000001 Z"/>
</svg>
